X: 1
T:Mazurka (slow)
R:Mazurka
M:3/4
O:France
K:G
D EF|GF GB AB|G2GD EF|GF GB AB|G3::\
Bd|c2BA Bd|A2-AB cA|BG FG AF|FE D2Bd|\
c2BA Bd|A2-AB cA|BG FG AF|G6:|
